parachute-outline.svg

<svg fill="currentColor" viewBox="0 0 24 24"><path d="M21.2 10.95 12 23 2.78 10.96l.09-.08c.21-.21.46-.38.71-.52l7.15 9.33L8.58 13l.66-1.19L12 20.38l2.73-8.58.67 1.2-2.13 6.69 7.14-9.34c.25.15.49.29.69.5zM12 4c2.5 0 4.77 1.17 6.25 3.03a5.93 5.93 0 0 0-2.78 1.1C14.47 7.41 13.26 7 12 7c-1.29 0-2.5.41-3.5 1.14-.82-.59-1.78-.97-2.79-1.1A8 8 0 0 1 12 4m0-2c-4.91 0-8.97 3.5-9.84 8.17C2.89 9.45 3.89 9 5 9c1.5 0 2.81.86 3.5 2.1A3.97 3.97 0 0 1 12 9c1.5 0 2.8.85 3.5 2.09A3.93 3.93 0 0 1 19 9c1.09 0 2.09.42 2.81 1.14C20.94 5.5 16.88 2 12 2"/></svg>

<svg  viewBox="0 0 24 24" fill="currentColor"><path  d="M21.2,10.95L12,23L2.78,10.96L2.87,10.88C3.08,10.67 3.33,10.5 3.58,10.36L10.73,19.69L8.58,13L9.24,11.81L12,20.38L14.73,11.8L15.4,13L13.27,19.69L20.41,10.35C20.66,10.5 20.9,10.64 21.1,10.85L21.2,10.95M12,4C14.5,4 16.77,5.17 18.25,7.03C17.24,7.15 16.28,7.54 15.47,8.13C14.47,7.41 13.26,7 12,7C10.71,7 9.5,7.41 8.5,8.14C7.68,7.55 6.72,7.17 5.71,7.04C7.19,5.17 9.47,4 12,4M12,2C7.09,2 3.03,5.5 2.16,10.17C2.89,9.45 3.89,9 5,9C6.5,9 7.81,9.86 8.5,11.1C9.17,9.86 10.47,9 12,9C13.5,9 14.8,9.85 15.5,11.09C16.16,9.84 17.47,9 19,9C20.09,9 21.09,9.42 21.81,10.14C20.94,5.5 16.88,2 12,2Z"/></svg>
